X:67
T:I Have a Bonnet Trimmed with Blue
R:polka
H:See also #70, #75
Z:id:hn-polka-67
M:2/4
L:1/8
K:A
AB/c/ df|eA c2|ef/e/ dB|BA c>B|AB/c/ df|eA c2|ef/e/ dB|BA A2:|
|:ef/g/ ag/f/|eA c2|ef/e/ dB|BA c2|ef/g/ ag/f/|eA c2|ef/e/ dB|BA A2:|
<end>
<start>
